X:1
T:I Am Coming Home
T:Bentley DeForest Ackley
T:I Am Coming Home
T:Public Domain
T:Public Domain
C:Bentley DeForest Ackley
Z:Public Domain
%%score ( 1 2 ) ( 3 4 )
L:1/8
M:4/4
K:G
V:1 treble 
V:2 treble 
V:3 bass 
V:4 bass 
V:1
 [GB]3 [DG] [EA][EG][CE][CG] | [B,D]2 [CE]2 [DG]2 [DA]2 | [DB]3 [Dc] [Dd][DB][DA][DG] | %3
w: 1.~Je- sus, I am com- ing|home to- day, for|I have found there’s joy in|
w: 2.~Ma- ny years my heart has|strayed from Thee, and|Now re- pent- ant to Thy|
w: 3.~O the mis- er- y my|sin has caused me,|Naught but pain and sor- row|
w: 4.~Ful- ly trust- ing in Thy|pre- cious prom- ise,|With no right- eous- ness to|
w: 5.~Now I seek the cross where|Je- sus died! For|all my sins His blood will|
 [DF]2 [DG]2 [FA]4 | [GB]3 [DG] [EA][EG][CE][CG] | [B,D]2 [CE]2 [DG]2 [DA]2 | %6
w: Thee a- lone;|From the path of sin I|turn a- way; now|
w: throne I come;|Je- sus o- pened up the|way for me; now|
w: I have known;|Now I seek Thy sav- ing|grace and mer- cy;|
w: call my own,|Plead- ing no- thing but the|blood of Je- sus,|
w: still a- tone,|Flow- ing o’er till ev- ’ry|stain is cov- ered;|
 [DB]2 [Dd]2 [DB] [DA]3 | [DG]6 z2 ||"^Refrain" [Gd]3 [Ge] [Gd][GB]G[Gc] | [GB]2 D2 [GB]4 | %10
w: I am com- ing|home.|||
w: I am com- ing|home.|||
w: I am com- ing|home.|||
w: I am com- ing|home.|||
w: I am com- ing|home.|||
 [FA]3 [FA] [GB][FA][EG][FA] | [GB]2 [Fd]2 (G2 F2) | [Gd]3 [Ge] [Gd][GB]G[Gc] | %13
w: |||
w: |||
w: |||
w: |||
w: |||
 [GB]2 D2 [EG]2 [FA]2 | [GB]2 [Gd]2 [FB] [FA]3 | [DG]6 z2 |] %16
w: |||
w: |||
w: |||
w: |||
w: |||
V:2
 x8 | x8 | x8 | x8 | x8 | x8 | x8 | x8 || x6 G x | x2 D2 x4 | x8 | x4 d4 | x6 G x | x2 D2 x4 | x8 | %15
 x8 |] %16
V:3
 [G,D]3 [G,B,] [C,C][C,C][C,G,][E,G,] | [G,,G,]2 [G,,G,]2 [B,,G,]2 [D,F,]2 | %2
w: ~ ~ ~ ~ ~ ~|~ ~ ~ ~|
 G,3 [G,A,] [G,B,][G,D][G,C][G,B,] | [A,C]2 [G,B,]2 [D,C]4 | [G,D]3 [G,B,] [C,C][C,C][C,G,][E,G,] | %5
w: ~ ~ ~ ~ ~ ~|~ ~ ~|~ ~ ~ ~ ~ ~|
 [G,,G,]2 [G,,G,]2 [B,,G,]2 [D,F,]2 | G,2 [B,,G,]2 [D,G,] [F,C]3 | [G,B,]6 z2 || %8
w: ~ ~ ~ ~|~ ~ ~ ~|sus,|
 [G,B,]3 [G,C] [G,B,][G,D][G,B,][G,E] | [G,D]2 [G,B,]2 [G,D]4 | %10
w: I am com- ing home to-|day, Nev- er,|
 [D,D]3 [D,D] [D,D][D,C][E,B,][D,D] | [G,D]2 [A,C]2 ([B,D]2 [A,C]2) | %12
w: nev- er more from Thee to|stray; Lord, I *|
 [G,B,]3 [G,C] [G,B,][G,D][G,B,][G,E] | [G,D]2 [F,C]2 [E,B,]2 [D,D]2 | %14
w: now ac- cept Thy pre- cious|prom- ise, I am|
 [G,D]2 [B,,D]2 [D,D] [D,C]3 | [G,B,]6 z2 |] %16
w: com- ing home. *||
V:4
 x8 | x8 | G,3 x5 | x8 | x8 | x8 | G,2 x6 | x8 || x8 | x8 | x8 | x8 | x8 | x8 | x8 | x8 |] %16
w: ||~||||Je-||||||||||

